X:1
T:His Loving Arms Around Me
T:His Loving Arms Around Me
T:Clarence Board Strouse
T:Ella M. Parks,1901
T:Public Domain Courtesy of the Cyber Hymnal™
T:Public Domain Courtesy of the Cyber Hymnal™
C:Clarence Board Strouse
Z:Public Domain
Z:Courtesy of the Cyber Hymnal™
%%score ( 1 2 ) ( 3 4 )
L:1/8
Q:1/4=92
M:4/4
K:Eb
V:1 treble 
V:2 treble 
V:3 bass 
V:4 bass 
V:1
 [EG][FA] | [GB][GB][^F=A][GB] [_Ac][GB][EG]E | [EG][EG][EA][Ec] [EB]2 [EG][EG] | %3
w: 1.~I was|far a- way from Je- sus, Dead in|tres- pass- es and sin, And I|
w: 2.~Then He|whis- pered to me par- don Through the|all a- ton- ing blood Which He|
w: 3.~Day by|day He guides and keeps me In the|bless- èd nar- row way, From the|
w: 4.~In the|hour of deep- est tri- al When all|earth- ly com- fort fails, And no|
w: 5.~Oh this|bless- èd life in Je- sus! Sin- ner,|won’t you hear His call? From the|
 [DF][DF][EG][EG] [F=A][FA][EG][EF] | [DB]6 [AB][AB] | [Ge][GB][Bd][Ac] [Ac][GB][EG][FG] | %6
w: thought for one so vile no hope could|be; But the|bless- èd Lord of Glo- ry Stooped and|
w: shed for my trans- gress- ions on the|tree; And the|bless- èd peace of Hea- ven Came in-|
w: ban of sin and death He makes me|free; There’s no|e- vil can be- fall me While I’m|
w: cheer- ing ray of sun- shine I can|see, Then to|Him I bring my sor- row, And He|
w: power of sin’s do- min- ion He can|free; Yield thy|heart to Him this mo- ment, And with|
 [Ec][Ec][EG][EG] !fermata![DB]2 [B,E][EG] | [GB][GB][Be][Ac] [GB]2 [EG]2 | F4 [B,E]2 || %9
w: raised me to Him- self, And He|put His lov- ing arms a-|round me.|
w: to my wea- ry soul, As He|put His lov- ing arms a-|round me.|
w: rest- ing in His grace, And He|has His lov- ing arms a-|round me.|
w: wipes a- way my tears, As He|puts His lov- ing arms ar-|ound me.|
w: joy thou’lt sure- ly find That He’ll|put His lov- ing arms a-|round thee!|
"^Refrain" [EG]2 | [GB]>[GB] [GB]>[EG] [GB]3 [EG] | [GB]4 [GB]3 [GB] | %12
w: |||
w: |||
w: 1,2,3,4.~He|put His lov- ing arms a-|round me; He|
w: |||
w: 5.~He’ll|put His lov- ing arms ar-|ound thee! He’ll|
 [Ac]>[Ac] [Ac]>[Ad] [Ae]3 [Ac] | [Ae]4 !fermata![Ge]2 [GB]2 | [Ge][Ge][Ge][Ge] [Fd]3 [FG] | %15
w: |||
w: |||
w: put His lov- ing arms a-|round me; I|looked in- to His face, It|
w: |||
w: put His lov- ing arms ar-|ound thee, Look|up in- to His face, It|
 [Ec][Ec][Ec][Ec] [EB]2 E[EF] | [EG][EG][EB][Ec] [EB]2 [EG]2 | [DF]4 [B,E]2 |] %18
w: |||
w: |||
w: beamed with ten- der grace, As He|put his lo- ving arms ar-|ound me.|
w: |||
w: beams with ten- der grace, And He’ll|put His lov- ing arms a-|round thee.|
V:2
 x2 | x7 E | x8 | x8 | x8 | x8 | x8 | x8 | (E2 D2) x2 || x2 | x8 | x8 | x8 | x8 | x8 | x6 E x | %16
 x8 | x6 |] %18
V:3
 [E,B,][E,B,] | [E,E][E,E][E,E][E,E] [E,E][E,E][E,B,][E,G,] | %2
 [E,B,][_D,B,][C,A,][A,,A,] [E,G,]2 [E,B,][E,B,] | %3
 [A,B,][A,B,][G,B,][G,B,] [F,C][F,C][F,B,][F,=A,] | [B,,B,]6 B,B, | %5
 [E,B,][E,E][A,E][A,E] [E,E][E,E][E,B,][D,=B,] | %6
 [C,C][C,C][C,C][C,E,] !fermata![B,,F,]2 [E,G,][E,B,] | [E,E][E,E][G,,E][A,,E] [B,,E]2 [B,,B,]2 | %8
 [B,,A,]4 [E,G,]2 || [E,B,]2 | [E,E]>[E,E] [E,E]>[E,B,] [E,E]3 [E,B,] | [E,E]4 [E,E]3 [E,E] | %12
 [A,E]>[A,E] [A,E]>[A,D] [A,C]3 [A,E] | [A,C]4 !fermata![E,B,]2 [E,E]2 | %14
 [E,B,][E,B,][C,C][C,C] [G,=B,]3 [G,B,] | [A,C]A,[A,,A,][C,A,] [E,G,]2 [G,,B,][A,,C] | %16
 [B,,B,][B,,B,][B,,G,][B,,G,] [B,,G,]2 [B,,B,]2 | [A,,A,]4 [E,G,]2 |] %18
V:4
 x2 | x8 | x8 | x8 | x6 B,B, | x8 | x8 | x8 | x6 || x2 | x8 | x8 | x8 | x8 | x8 | x A, x6 | x8 | %17
 x6 |] %18

